markets/MATIC.svg

<svg width="42" height="42" viewBox="0 0 42 42" fill="none" xmlns="http://www.w3.org/2000/svg">
<g clip-path="url(#clip0_7277_55619)">
<path d="M21 42C32.5584 42 42 32.5416 42 21C42 9.4416 32.5416 0 21 0C9.4416 0 0 9.4584 0 21C0 32.5584 9.4584 42 21 42Z" fill="url(#paint0_linear_7277_55619)"/>
<path d="M27.0816 25.5359L33.0288 22.1087C33.348 21.9239 33.5328 21.5879 33.5328 21.2183V14.3639C33.5328 13.9943 33.3312 13.6583 33.0288 13.4735L27.0816 10.0463C26.7624 9.86151 26.376 9.86151 26.0568 10.0463L20.1096 13.4735C19.7904 13.6583 19.6056 13.9943 19.6056 14.3639V26.6279L15.4392 29.0303L11.2728 26.6279V21.8231L15.4392 19.4207L18.1944 20.9999V17.7743L15.96 16.4807C15.8088 16.3967 15.624 16.3463 15.456 16.3463C15.2712 16.3463 15.1032 16.3967 14.952 16.4807L9.00479 19.9079C8.68559 20.0927 8.50079 20.4287 8.50079 20.7983V27.6527C8.50079 28.0223 8.70239 28.3583 9.00479 28.5431L14.952 31.9703C15.2712 32.1551 15.6576 32.1551 15.9768 31.9703L21.924 28.5431C22.2432 28.3583 22.428 28.0223 22.428 27.6527V15.3887L22.4952 15.3383L26.5944 12.9695L30.7608 15.3719V20.1767L26.5944 22.5791L23.856 20.9999V24.2255L26.0904 25.5191C26.4096 25.7039 26.796 25.7039 27.1152 25.5191L27.0816 25.5359Z" fill="white"/>
</g>
<defs>
<linearGradient id="paint0_linear_7277_55619" x1="-7.68153" y1="3.41059" x2="35.6289" y2="29.9714" gradientUnits="userSpaceOnUse">
<stop stop-color="#A229C5"/>
<stop offset="1" stop-color="#7B3FE4"/>
</linearGradient>
<clipPath id="clip0_7277_55619">
<rect width="42" height="42" fill="white"/>
</clipPath>
</defs>
</svg>

<svg xmlns="http://www.w3.org/2000/svg" width="42" height="42" fill="none"><g clip-path="url(#a)"><path fill="url(#b)" d="M21 42c11.558 0 21-9.458 21-21C42 9.442 32.542 0 21 0 9.442 0 0 9.458 0 21c0 11.558 9.458 21 21 21Z"/><path fill="#fff" d="m27.082 25.536 5.947-3.427c.319-.185.504-.521.504-.89v-6.855c0-.37-.202-.706-.504-.89l-5.947-3.428a1.017 1.017 0 0 0-1.025 0l-5.947 3.428c-.32.184-.504.52-.504.89v12.264l-4.167 2.402-4.166-2.402v-4.805l4.166-2.402L18.194 21v-3.226l-2.234-1.293a1.077 1.077 0 0 0-.504-.135c-.185 0-.353.05-.504.135l-5.947 3.427c-.32.185-.504.52-.504.89v6.855c0 .37.201.705.504.89l5.947 3.427c.32.185.706.185 1.025 0l5.947-3.427c.32-.185.504-.52.504-.89V15.389l.067-.05 4.1-2.37 4.166 2.403v4.805l-4.167 2.402L23.856 21v3.227l2.234 1.293c.32.185.706.185 1.025 0l-.033.017Z"/></g><defs><linearGradient id="b" x1="-7.682" x2="35.629" y1="3.411" y2="29.971" gradientUnits="userSpaceOnUse"><stop stop-color="#A229C5"/><stop offset="1" stop-color="#7B3FE4"/></linearGradient><clipPath id="a"><path fill="#fff" d="M0 0h42v42H0z"/></clipPath></defs></svg>
